icon/pk/sound-wave.svg

<svg viewBox="0 0 48 48" fill="none" xmlns="http://www.w3.org/2000/svg" height="1em" width="1em">
  <path d="M6 14V12C6 8.68629 8.68629 6 12 6H36C39.3137 6 42 8.68629 42 12V14" stroke="black" stroke-width="4" stroke-linecap="round" stroke-linejoin="round"/>
  <path d="M32 18V30" stroke="black" stroke-width="4" stroke-linecap="round" stroke-linejoin="round"/>
  <path d="M40 20V28" stroke="black" stroke-width="4" stroke-linecap="round" stroke-linejoin="round"/>
  <path d="M24 15V33" stroke="black" stroke-width="4" stroke-linecap="round" stroke-linejoin="round"/>
  <path d="M16 18V30" stroke="black" stroke-width="4" stroke-linecap="round" stroke-linejoin="round"/>
  <path d="M8 20V28" stroke="black" stroke-width="4" stroke-linecap="round" stroke-linejoin="round"/>
  <path d="M6 34V36C6 39.3137 8.68629 42 12 42H36C39.3137 42 42 39.3137 42 36V34" stroke="black" stroke-width="4" stroke-linecap="round" stroke-linejoin="round"/>
</svg>

<svg width="48" height="48" fill="none" xmlns="http://www.w3.org/2000/svg"><path d="M6 14v-2a6 6 0 0 1 6-6h24a6 6 0 0 1 6 6v2M32 18v12M40 20v8M24 15v18M16 18v12M8 20v8M6 34v2a6 6 0 0 0 6 6h24a6 6 0 0 0 6-6v-2" stroke="#000" stroke-width="4" stroke-linecap="round" stroke-linejoin="round"/></svg>
